COLOR/action 16/16/multisystem-save.svg

<svg height="16" width="16" xmlns="http://www.w3.org/2000/svg"><path d="m11.387467 14.999664c3.275632 0 3.628089-.288383 3.612032-3.101679v-3.8981471-3.8981378c.01602-2.8133046-.3364-3.1016881-3.612032-3.1016881h-6.7754273c-3.2756412 0-3.6120397.2883461-3.6120397 3.1016881v3.8981378 3.8981471c0 2.813333.336408 3.101679 3.6120397 3.101679z" fill="#999" stroke-width=".937817"/><rect fill="#fff" height="6.533171" opacity=".97" ry=".278922" stroke-width=".937817" width="9.423458" x="3.28843" y="2.400183"/><path d="m11.769542 14.996304v-3.26302c0-.93331-.594121-.93331-.942346-.93331h-5.6540743c-.3483192 0-.9423458 0-.9423458.93331v3.26302c6.7635261-.000167.206713.0084 7.5387661 0zm-6.5964203-.463089v-2.799931h2.8270375v2.799931z" opacity=".5" stroke-width=".7224"/><path d="m11.389169 15c3.275641 0 3.611328-.28822 3.611328-3.101562v-.5c0 2.813342-.335687 3.101562-3.611328 3.101562h-6.7753908c-3.2756319 0-3.62930093-.288258-3.6132809-3.101562v.5c-.01602 2.813304.337649 3.101562 3.6132809 3.101562z" opacity=".2" stroke-width=".937817"/><g enable-background="new" fill="#45a925" stroke-width=".642857" transform="matrix(0 -1.1666667 -1.1666667 0 106.74343 442.17816)"><path d="m369.58127 78.043824-4.28571 3.296698 4.28571 3.296696v-2.197798h4.2857v-2.197798h-4.2857z" stroke-width=".494504"/><g stroke-width=".576922" transform="matrix(0 -.85714284 -.85714284 0 379.66723 74.293398)"><path d="m-9.5031983 6.7669582v.3846146h2.5630959v-.3846146zm-2.5645977 4.9999908.295973.384614h2.2686247v-.384614zm5.1276936 0v.384614h2.2686247l.295974-.384614z" fill="#fff" opacity=".3"/><path d="m-12.067796 11.766949 3.8461456 4.99999 3.8461467-4.99999h-.295974l-3.5501727 4.615375-3.5501726-4.615375z" fill="#000" opacity=".2"/></g></g><path d="m4.6113281 1c-3.2756412 0-3.6113281.2882205-3.6113281 3.1015625v.5c0-2.813342.3356869-3.1015625 3.6113281-3.1015625h6.7753909c3.275632 0 3.629301.2882579 3.613281 3.1015625v-.5c.01602-2.8133046-.337649-3.1015625-3.613281-3.1015625z" fill="#fff" opacity=".3" stroke-width=".937817"/></svg>

<?xml version="1.0" encoding="UTF-8" standalone="no"?>
<svg
   xmlns:dc="http://purl.org/dc/elements/1.1/"
   xmlns:cc="http://creativecommons.org/ns#"
   xmlns:rdf="http://www.w3.org/1999/02/22-rdf-syntax-ns#"
   xmlns:svg="http://www.w3.org/2000/svg"
   xmlns="http://www.w3.org/2000/svg"
   xmlns:sodipodi="http://sodipodi.sourceforge.net/DTD/sodipodi-0.dtd"
   xmlns:inkscape="http://www.inkscape.org/namespaces/inkscape"
   height="16"
   width="16"
   version="1.1"
   id="svg33"
   sodipodi:docname="multisystem-save.svg"
   inkscape:version="0.92.4 (5da689c313, 2019-01-14)">
  <metadata
     id="metadata39">
    <rdf:RDF>
      <cc:Work
         rdf:about="">
        <dc:format>image/svg+xml</dc:format>
        <dc:type
           rdf:resource="http://purl.org/dc/dcmitype/StillImage" />
      </cc:Work>
    </rdf:RDF>
  </metadata>
  <defs
     id="defs37" />
  <sodipodi:namedview
     pagecolor="#ffffff"
     bordercolor="#666666"
     borderopacity="1"
     objecttolerance="10"
     gridtolerance="10"
     guidetolerance="10"
     inkscape:pageopacity="0"
     inkscape:pageshadow="2"
     inkscape:window-width="1920"
     inkscape:window-height="1016"
     id="namedview35"
     showgrid="false"
     inkscape:zoom="57.613783"
     inkscape:cx="8.5964225"
     inkscape:cy="12.141198"
     inkscape:window-x="0"
     inkscape:window-y="27"
     inkscape:window-maximized="1"
     inkscape:current-layer="svg33" />
  <linearGradient
     id="a"
     gradientUnits="userSpaceOnUse"
     x1="328"
     x2="328"
     y1="237"
     y2="251">
    <stop
       offset="0"
       stop-color="#fff"
       id="stop2" />
    <stop
       offset=".125"
       stop-color="#fff"
       stop-opacity=".098039"
       id="stop4" />
    <stop
       offset=".92500001"
       stop-color="#fff"
       stop-opacity=".098039"
       id="stop6" />
    <stop
       offset="1"
       stop-color="#fff"
       stop-opacity=".498039"
       id="stop8" />
  </linearGradient>
  <clipPath
     id="b">
    <path
       d="m325.09646 237c-2.80769 0-3.10979.28839-3.09603 3.10176v3.89824 3.89824c-.0138 2.81337.28834 3.10176 3.09603 3.10176h5.8075c2.8077 0 3.09604-.28835 3.09604-3.10176v-3.89824-3.89824c0-2.8134-.28835-3.10176-3.09604-3.10176z"
       id="path11" />
  </clipPath>
  <linearGradient
     id="c"
     gradientTransform="matrix(0 -.87499989 .87499989 0 -205.49969 295.00024)"
     gradientUnits="userSpaceOnUse"
     x1="336.00009"
     x2="320.00009"
     y1="236.00017"
     y2="252.00017">
    <stop
       offset="0"
       stop-color="#999"
       id="stop14" />
    <stop
       offset=".61328125"
       stop-color="#b7b7b7"
       id="stop16" />
    <stop
       offset="1"
       stop-color="#dbdbdb"
       id="stop18" />
  </linearGradient>
  <path
     d="m 11.387467,14.999664 c 3.275632,0 3.628089,-0.288383 3.612032,-3.101679 V 7.9998379 4.1017001 C 15.015519,1.2883955 14.663099,1.000012 11.387467,1.000012 H 4.6120397 C 1.3363985,1.000012 1,1.2883581 1,4.1017001 v 3.8981378 3.8981471 c 0,2.813333 0.336408,3.101679 3.6120397,3.101679 z"
     id="path23"
     style="fill:#999999;fill-opacity:1;stroke-width:0.93781716"
     inkscape:connector-curvature="0" />
  <rect
     height="6.5331707"
     ry="0.27892217"
     width="9.4234581"
     x="3.2884302"
     y="2.4001825"
     id="rect29"
     style="opacity:0.97;fill:#ffffff;stroke-width:0.93781716" />
  <path
     d="m 11.769542,14.996304 v -3.26302 c 0,-0.93331 -0.594121,-0.93331 -0.942346,-0.93331 H 5.1731217 c -0.3483192,0 -0.9423458,0 -0.9423458,0.93331 v 3.26302 c 6.7635261,-1.67e-4 0.206713,0.0084 7.5387661,0 z M 5.1731217,14.533215 v -2.799931 h 2.8270375 v 2.799931 z"
     id="path31"
     style="opacity:0.5;fill:#000000;fill-opacity:1;stroke-width:0.72240007"
     inkscape:connector-curvature="0" />
  <path
     id="path838"
     d="m 11.389169,15 c 3.275641,0 3.611328,-0.28822 3.611328,-3.101562 v -0.5 C 15.000497,14.21178 14.66481,14.5 11.389169,14.5 H 4.6137782 c -3.2756319,0 -3.62930093,-0.288258 -3.6132809,-3.101562 v 0.5 C 0.9844773,14.711742 1.3381463,15 4.6137782,15 Z"
     style="opacity:0.2;fill:#000000;fill-opacity:1;stroke-width:0.93781716"
     inkscape:connector-curvature="0" />
  <g
     id="g860"
     transform="matrix(0,-1.1666667,-1.1666667,0,106.74343,442.17816)"
     style="fill:#45a925;stroke-width:0.64285702;enable-background:new">
    <path
       id="path846"
       d="m 369.58127,78.043824 -4.28571,3.296698 4.28571,3.296696 V 82.43942 h 4.2857 v -2.197798 h -4.2857 z"
       inkscape:connector-curvature="0"
       style="stroke-width:0.49450442" />
    <g
       id="g856"
       transform="matrix(0,-0.85714284,-0.85714284,0,379.66723,74.293398)">
      <path
         id="path850"
         d="m -9.5031983,6.7669582 v 0.3846146 h 2.5630959 V 6.7669582 Z m -2.5645977,4.9999908 0.295973,0.384614 h 2.2686247 v -0.384614 z m 5.1276936,0 v 0.384614 h 2.2686247 l 0.295974,-0.384614 z"
         inkscape:connector-curvature="0"
         style="opacity:0.3;fill:#ffffff;stroke-width:0.57692194" />
      <path
         id="path852"
         d="m -12.067796,11.766949 3.8461456,4.99999 3.8461467,-4.99999 h -0.295974 l -3.5501727,4.615375 -3.5501726,-4.615375 z"
         inkscape:connector-curvature="0"
         style="opacity:0.2;fill:#000000;stroke-width:0.57692194" />
    </g>
  </g>
  <path
     style="fill:#ffffff;fill-opacity:1;stroke-width:0.93781716;opacity:0.3"
     d="M 4.6113281 1 C 1.3356869 1 1 1.2882205 1 4.1015625 L 1 4.6015625 C 1 1.7882205 1.3356869 1.5 4.6113281 1.5 L 11.386719 1.5 C 14.662351 1.5 15.01602 1.7882579 15 4.6015625 L 15 4.1015625 C 15.01602 1.2882579 14.662351 1 11.386719 1 L 4.6113281 1 z "
     id="path833" />
</svg>
